!!key: tele-40-7-Fan-All-2-Flute
!!!COM: Telemann, Georg Philipp
!!!CDT: 1681/03/14-1767/06/25
!!!CBL: Magdeburg
!!!CDL: Hamburg
!!!CNT: German
!!!TWV: 40:7
!!!TWV-genre: 40
!!!TWV-work: 7
!!!OPR: 12 Fantasias for transverse flute without bass
!!!OTL: Fantasia 6
!!!OMD: Allegro
!!!OMV: 2
!!!ODT: ca. 1732–1733
!!!AST: Late Baroque
!!!AGN: Fantasia
!!!AMT: Simple quadruple
!!!AIN: Transverse flute
**kern
*ICww
*Iflt
*clefG2
*k[b-]
*d:
*M4/4
*met(c)
=
4r
4dd
4cc#X
4ee
=
4a
2dd
4cc#X
=
8dd
16ee
16ff
8ee
8dd
(8gg#X
8aa)
8a
8ff
=
8g#X
8ee
8bn
8dd#X
8e
8ee
16aa
16cc
16b
16cc
=
16ddn
16bn
16cc
16dd
8g#X
8ee
16aa
16cc
16b
16cc
8aa
8ggn
!!LO:LB:g=original
=
8dd
8ff#X
8cc
8aa
8b-X
8ddd
8a
8ccc
=
8g
16bb-
16aa
8gg
8ffn
8cc
8ee
8b-
8gg
=
8a
8ccc
8g
8bb-
8f
16aa
16gg
8ff
8bn
=
8ee
8cc
8gg
8bn
8cc
8b-X
16ff
16a
16g
16a
!!LO:LB:g=original
=
16b-
16g
16a
16b-
8ee
8cc
8f
16ff
16ee
8ff
8f
=
4r
4cc
4bn
4dd
=
4g
16cc
16ee
16dd
16ee
16ff
16dd
16ee
16ff
8bn
8gg
=
8cc
8ee
16a
16cc
16bn
16cc
16dd
16b
16cc
16dd
8g#X
8ee
!!LO:LB:g=original
=
8a
8cc
16f
16a
16gn
16a
16b-X
16g
16a
16b-
8e
8cc
=
16f
16cc
16dd
16ee-X
16f#X
16ee-
16dd
16cc
8g
8b-
4gg
=
4f#X
4aa
4dd
8g
8ee-X
=
8f#X
8dd
8a
8cc#X
8d
8dd
16g
(16b-
16a
16b-)
!!LO:LB:g=original
=
16ccn
16a
16b-
16cc
8f#X
8dd
8g
16gg
16ff#X
8gg
8g
=
8r
(8bb-
8aa
8gg)
8fn
(8aa
8gg
8ff)
=
8e
(8gg
8ff
8ee)
8d
(8ff
8ee
8dd)
=
16a
16cc#X
16dd
16ee
16a
16dd
16ee
16ff
8a
16ee
16dd
16cc#
16dd
8ee
=
8r
(8bb-
8aa
8gg)
8f
(8aa
8gg
8ff)
=
8e
(8gg
8ff
8ee)
8d
(8ff
8ee
8dd)
=
16a
16cc#X
16dd
16ee
16a
16dd
16ee
16ff
8a
16ee
16dd
16cc#
16dd
8ee
=
4d
4ddd
4ccc#X
4eee
=
4aa
8dd
8bb-
8cc#X
8aa
8ee
8gg#X
=
8a
8aa
16dd
16ff
16ee
16ff
16ggn
16ee
16ff
16gg
8cc#X
8aa
=
16dd
16ff
16ee
16ff
16gg
16bn
16a
16b
16ccn
16ee
16dd
16ee
16ff
16a
16g
16a
=
16b-X
16dd
16cc#X
16dd
16ee
16g
16f
16g
16a
16cc
16bn
16cc
8dd
8f
=
8g
8e
8a
8cc#X
16dd
16ee
16ff
16gg
8aa
8a
=
8g
8e
8a
8cc#X
8dd
16ddd
16ccc#X
8ddd
8f
=
4g
4a
4d
4r
==
*-
!!!RTL1: G. PH. Telemann: Twelve Fantasias for Flute without Bass TWV 40:2-13
!!!RPN1: D'Arcangelo, Rita
!!!RMM1: Da Vinci Classics
!!!RC#1: DV-C00440
!!!RRD1: 2022
!!!RLC1: Andreaskirche, Berlin, Germany
!!!RDT1: 16 September 2020, 17 September 2020
!!!RT#1: 6
!!!RTL2: The Telemann Files: 12 Fantasies for Solo Flute
!!!RPN2: Choi, Jasmine
!!!RMM2: Austrian Gramophone
!!!RC#2: AG0001
!!!RRD2: February 2015
!!!RLC2: LeFrak Hall, Queens, USA
!!!RDT2: 9 June 2014, 10 June 2014
!!!RT#2: 6
!!!RTL3: Georg Philipp Telemann: Twelve Fantasies for Flute
!!!RPN3: Robertello, Thomas
!!!RMM3: Delos
!!!RC#3: DE3396
!!!RRD3: 1 June 2009
!!!RLC3: Clear Creek Recording, Keene, California
!!!RDT3: Unknown
!!!RT#3: 6
